src/assets/img/icon_2.svg

<svg width="66" height="51" viewBox="0 0 66 51" fill="none" xmlns="http://www.w3.org/2000/svg">
<path d="M43.9218 1.21875L30.4116 14.5415L27.6363 30.0497L30.5966 30.4146L32.4468 32.9689L36.4246 34.1548L57.3635 13.5064M0.53125 49.5669H65.3451M19.7216 46.1334L26.4726 31.862L29.2362 32.97L30.3529 35.9095L33.884 38.0702L19.7216 46.1334Z" stroke="white"/>
</svg>

<svg xmlns="http://www.w3.org/2000/svg" fill="none" viewBox="0 0 66 51"><path stroke="#fff" d="M43.922 1.219L30.412 14.54 27.636 30.05l2.96.365 1.85 2.554 3.979 1.186 20.939-20.649M.53 49.566h64.814m-45.623-3.433l6.75-14.271 2.764 1.108 1.117 2.94 3.531 2.16-14.162 8.063z"/></svg>
